findly-builder/apps/searchassist/src/assets/icons/accordian-collapse.svg

<svg width="16" height="16" viewBox="0 0 16 16" fill="none" xmlns="http://www.w3.org/2000/svg">
<path fill-rule="evenodd" clip-rule="evenodd" d="M11.4165 8C11.4165 7.79687 11.3423 7.62109 11.1938 7.47266L5.94385 2.22266C5.79541 2.07422 5.61963 2 5.4165 2C5.21338 2 5.0376 2.07422 4.88916 2.22266C4.74072 2.37109 4.6665 2.54688 4.6665 2.75L4.6665 13.25C4.6665 13.4531 4.74072 13.6289 4.88916 13.7773C5.0376 13.9258 5.21338 14 5.4165 14C5.61963 14 5.79541 13.9258 5.94385 13.7773L11.1938 8.52734C11.3423 8.37891 11.4165 8.20312 11.4165 8Z" fill="#BDC1C6"/>
</svg>

<svg width="16" height="16" fill="none" xmlns="http://www.w3.org/2000/svg"><path fill-rule="evenodd" clip-rule="evenodd" d="M11.416 8a.72.72 0 0 0-.222-.527l-5.25-5.25A.72.72 0 0 0 5.417 2a.72.72 0 0 0-.528.223.72.72 0 0 0-.223.527v10.5a.72.72 0 0 0 .223.527.72.72 0 0 0 .527.223.72.72 0 0 0 .528-.223l5.25-5.25A.72.72 0 0 0 11.416 8Z" fill="#BDC1C6"/></svg>
